release/img/handshake_icon.svg

<svg width="58" height="58" viewBox="0 0 58 58" fill="none" xmlns="http://www.w3.org/2000/svg">
<path d="M30.786 9.36037C30.7854 9.12492 30.7849 8.88947 30.7849 8.65402V8.65526C30.7849 8.43374 30.7859 8.21211 30.7869 7.99043C30.7892 7.47308 30.7916 6.95548 30.7812 6.43849C30.7688 5.85708 30.2171 5.13094 29.7544 5.04806C28.8242 4.88229 28.2168 5.14083 27.9261 5.89419C27.8275 6.1469 27.8268 6.44632 27.8261 6.72832L27.8259 6.78486C27.8185 8.22972 27.8197 9.67582 27.8321 11.1207C27.837 11.5747 28.4333 12.2773 28.8427 12.359C29.888 12.568 30.775 11.8468 30.7849 10.7731C30.7882 10.3022 30.7871 9.83127 30.786 9.36037Z" fill="#1FAD96"/>
<path d="M13.8051 25.6993C14.3286 25.6858 14.8519 25.6724 15.3715 25.7092C16.1818 25.7661 16.6395 25.4098 16.9661 24.7071C17.2526 24.09 17.5718 23.4885 17.891 22.8871C18.0197 22.6448 18.1484 22.4022 18.2749 22.1588C18.7276 21.2892 19.3771 20.6262 20.2863 20.2291C20.3926 20.1823 20.4914 20.1173 20.5902 20.0524C20.635 20.0229 20.6799 19.9934 20.7254 19.9656C20.7724 19.9476 20.8194 19.9294 20.8665 19.9111C20.9135 19.8929 20.9605 19.8747 21.0075 19.8567C21.9946 19.8498 22.9818 19.8425 23.969 19.8351C27.0714 19.8119 30.1739 19.7888 33.2764 19.7813L33.3013 19.7813C33.8073 19.7811 34.3421 19.781 34.7559 20.2192C35.106 20.5903 35.2916 21.0109 35.2149 21.4921C35.1308 22.017 35.0146 22.5372 34.8985 23.0571C34.8472 23.2871 34.7958 23.517 34.7473 23.7472C34.673 24.0985 34.49 24.2395 34.1003 24.2334L33.8372 24.2298C32.0161 24.2048 30.1938 24.1799 28.3728 24.2247C26.6521 24.2668 25.0266 24.7307 23.8749 26.0778C23.1896 26.8782 22.6837 27.8517 22.1975 28.7993C21.4815 30.194 20.7817 31.5969 20.0819 32.9998C19.2971 34.5732 18.5122 36.1468 17.7046 37.7084C17.1986 38.6869 17.592 39.6456 18.4901 40.0019C18.6557 40.0677 18.8211 40.1342 18.9865 40.2008L18.9876 40.2012C19.7055 40.49 20.4243 40.7793 21.1609 41.0064C21.5628 41.131 21.987 41.1837 22.4117 41.2365C22.6027 41.2603 22.7938 41.2841 22.983 41.3144C23.023 41.3414 23.0623 41.372 23.1015 41.4026C23.1971 41.4771 23.2929 41.5517 23.3999 41.5754C23.4479 41.5857 23.5168 41.5015 23.5854 41.4175C23.6157 41.3804 23.6461 41.3432 23.6745 41.3144C23.9289 41.272 24.184 41.2331 24.4392 41.1942C25.07 41.098 25.7011 41.0018 26.3193 40.853C26.7523 40.7491 27.1617 40.4868 27.5428 40.2369C27.9462 39.972 28.3319 39.6813 28.7179 39.3904C28.8799 39.2683 29.0419 39.1462 29.2053 39.0259L29.2682 38.9704C29.3132 38.9306 29.3585 38.8907 29.4033 38.8502C29.641 38.5704 29.8796 38.2906 30.1175 38.0116L30.2209 37.8903L30.2383 37.8742L31.3961 36.1597C31.4097 36.1467 31.423 36.1337 31.4363 36.1207C31.4496 36.1077 31.4629 36.0947 31.4765 36.0817C32.173 35.9543 32.6789 36.1881 33.1923 36.7114C35.3116 38.8718 37.4532 41.0099 39.5947 43.1481C40.4869 44.0389 41.3791 44.9297 42.2697 45.8222C42.4394 45.9918 42.595 46.1754 42.7507 46.359C42.8221 46.4432 42.8935 46.5273 42.9662 46.6102C42.5047 47.2509 41.8491 47.5181 41.1786 47.7408C40.5206 47.9599 39.8569 48.1619 39.1929 48.364L39.1912 48.3645C38.9261 48.4452 38.6601 48.5262 38.3953 48.608L38.0935 48.7873C37.5693 48.9378 37.0452 49.0886 36.5211 49.2393C35.9937 49.391 35.4664 49.5427 34.939 49.6941L34.8571 49.7425L34.856 49.7432L34.8545 49.7441C34.782 49.7869 34.7093 49.8299 34.6372 49.8735C34.0228 50.0506 33.4084 50.2272 32.7937 50.404L31.4815 50.7815L31.1796 50.9608C30.8448 51.0606 30.5114 51.1685 30.1779 51.2765C29.4077 51.5258 28.6373 51.7751 27.8483 51.9245C26.8178 52.1199 25.7763 51.943 24.8559 51.348C24.8176 51.322 24.7804 51.2973 24.7421 51.2713C24.6235 51.1666 24.5032 51.0637 24.3829 50.9609C24.1295 50.7441 23.8761 50.5273 23.6387 50.2941C23.1749 49.8366 22.715 49.3754 22.255 48.9141C21.542 48.1991 20.8291 47.4841 20.102 46.7833C19.9053 46.5941 19.5676 46.463 19.2929 46.4592C17.7002 46.4393 16.1074 46.4412 14.5017 46.4432C14.0185 46.4438 13.5342 46.4444 13.0484 46.4444C13.0435 46.4134 13.0374 46.3828 13.0313 46.3525C13.0187 46.2896 13.0063 46.2278 13.0063 46.1661C13.0038 39.439 13.0051 32.7108 13.0063 25.9838C13.0063 25.9413 13.011 25.8988 13.0156 25.8567C13.0181 25.8338 13.0206 25.811 13.0224 25.7883C13.036 25.7753 13.0496 25.762 13.0632 25.7487C13.0768 25.7354 13.0904 25.7221 13.104 25.7092L13.1028 25.7129C13.3366 25.7113 13.5711 25.7053 13.8051 25.6993Z" fill="#1FAD96"/>
<path d="M48.5975 46.4283C48.5955 46.4107 48.593 46.3928 48.5903 46.3746L48.585 46.3402C48.5758 46.2807 48.5662 46.2191 48.5654 46.1574C48.5641 39.4341 48.5641 32.712 48.5654 25.9887C48.5654 25.9406 48.5707 25.8924 48.576 25.8447C48.5779 25.8275 48.5798 25.8103 48.5815 25.7933C48.6075 25.7672 48.6336 25.7422 48.6608 25.7163L48.6643 25.7129C48.9885 25.7118 49.3126 25.7104 49.6367 25.709C50.8032 25.7041 51.9697 25.6992 53.1362 25.7079C53.2671 25.7088 53.3975 25.7632 53.528 25.8178C53.5887 25.8431 53.6494 25.8685 53.7102 25.8885C53.5045 26.3 53.738 26.4391 53.9783 26.5822C54.0819 26.6438 54.1867 26.7063 54.2582 26.7916L54.2554 26.8026C54.1843 27.0792 54.1063 27.3827 54.591 27.3742V44.7583C54.351 44.7373 54.2063 44.7818 54.1815 45.0849C54.1432 45.5438 53.9515 45.8964 53.4022 45.9409C53.1461 45.9619 52.8814 46.072 52.9123 46.4283H48.5975Z" fill="#1FAD96"/>
<path d="M45.5894 28.7092C45.5869 28.2309 45.5845 27.7526 45.5827 27.274H45.5815C45.5679 27.2604 45.5542 27.2471 45.5406 27.2338C45.527 27.2205 45.5134 27.2072 45.4998 27.1936C45.4561 27.192 45.4124 27.1898 45.3687 27.1876C45.2813 27.1832 45.1939 27.1788 45.1064 27.1788C43.6386 27.1788 42.1706 27.1792 40.7027 27.1796C36.5924 27.1808 32.4817 27.182 28.3718 27.1738C26.9554 27.1714 25.9855 27.848 25.3658 29.0616C24.3056 31.1361 23.269 33.2217 22.2336 35.3086C21.9477 35.8847 21.6769 36.4679 21.4062 37.0512L21.4057 37.0522C21.283 37.3165 21.1603 37.5808 21.0361 37.8445L21.1029 37.9188C22.2039 38.374 23.342 38.4705 24.5048 38.2342C25.9472 37.941 27.1694 37.2446 28.0031 36.0273C28.4451 35.3809 28.7986 34.6714 29.151 33.9642C29.2315 33.8028 29.3122 33.6407 29.3936 33.4803C29.5395 33.192 29.7004 33.0906 30.022 33.1042C30.4887 33.1243 30.9566 33.1206 31.4245 33.1168C31.6473 33.1151 31.8701 33.1133 32.0928 33.1141C32.9575 33.1178 33.7653 33.3009 34.4394 33.886C34.4931 33.9352 34.5473 33.984 34.6016 34.0328C34.7286 34.1471 34.8559 34.2616 34.9763 34.3821C35.8261 35.2315 36.6758 36.0812 37.5255 36.9308C40.0725 39.4775 42.6196 42.0244 45.1695 44.5678C45.2485 44.646 45.3494 44.7024 45.4502 44.7588C45.4993 44.7862 45.5485 44.8137 45.5951 44.8437L45.5966 40.3001C45.5977 37.2739 45.5988 34.248 45.5988 31.2214C45.598 30.3844 45.5937 29.5479 45.5894 28.7112V28.7092Z" fill="#1FAD96"/>
<path d="M4.11139 45.558L4.0149 45.151C4.0149 43.5715 4.0163 41.9921 4.01771 40.4126C4.02158 36.0692 4.02545 31.7257 4.00005 27.3822C3.99263 26.233 4.77691 25.6516 5.69974 25.685C6.69332 25.7206 7.68873 25.7171 8.68383 25.7136C9.10351 25.7122 9.52338 25.7107 9.94279 25.7122C9.97 25.7394 9.99722 25.7666 10.0244 25.7926C10.0261 26.099 10.0283 26.4054 10.0305 26.7119C10.0349 27.3257 10.0393 27.9403 10.0393 28.5549C10.0401 32.4037 10.0398 36.2526 10.0396 40.1014L10.0393 46.4313C9.57487 46.4313 9.1134 46.4336 8.65409 46.4359H8.65264C7.45342 46.4418 6.26885 46.4476 5.08494 46.4128C4.61733 46.3992 4.25983 46.0441 4.10891 45.558H4.11139Z" fill="#1FAD96"/>
<path d="M21.7181 15.9156L21.2048 16.5292C21.1454 16.5564 21.086 16.5836 21.0266 16.6096C20.5157 17.0091 19.8391 16.8248 19.4185 16.4376C18.9258 15.9854 18.4471 15.5181 17.9683 15.0507C17.5683 14.6603 17.1683 14.2698 16.7601 13.8881C16.1663 13.3327 15.8199 12.7055 15.9808 11.8692L16.0785 11.6713C16.1162 11.6105 16.1531 11.549 16.1899 11.4875C16.2797 11.3374 16.3696 11.1873 16.4731 11.0479C16.5312 10.9687 16.6525 10.887 16.7415 10.8907L16.8703 10.8945C17.2296 10.9046 17.5932 10.9148 17.939 10.9922C18.0887 11.0256 18.2213 11.1347 18.3539 11.2438C18.413 11.2925 18.4721 11.3411 18.5328 11.3831C18.5644 11.4177 18.5956 11.4528 18.6269 11.4878C18.6984 11.5681 18.77 11.6484 18.8457 11.7233C19.5072 12.3792 20.17 13.0344 20.8327 13.6894L21.4955 14.3446C21.8406 14.7812 22.0101 15.255 21.7924 15.8067C21.7676 15.8426 21.7429 15.8773 21.7169 15.9131L21.7181 15.9156Z" fill="#1FAD96"/>
<path d="M42.4827 11.8586C42.187 10.8381 40.7372 10.7008 40.0791 11.2772L37.109 14.2474C36.5795 14.9488 36.5734 15.8605 37.0966 16.354C37.7065 16.9317 38.6392 16.9763 39.2132 16.4171C40.214 15.4411 41.2048 14.4539 42.1784 13.4507C42.6138 13.0029 42.6497 12.4363 42.4827 11.8586Z" fill="#1FAD96"/>
</svg>

<svg xmlns="http://www.w3.org/2000/svg" width="58" height="58" fill="none" viewBox="0 0 58 58">
  <path fill="#1FAD96" d="m30.786 9.36-.001-.706v.001c0-.221 0-.443.002-.665.002-.517.005-1.035-.006-1.552-.012-.58-.564-1.307-1.027-1.39-.93-.166-1.537.093-1.828.846-.098.253-.1.552-.1.834v.057c-.008 1.445-.006 2.89.006 4.336.005.454.601 1.156 1.01 1.238 1.046.209 1.933-.512 1.943-1.586.003-.47.002-.942.001-1.413ZM13.805 25.7a16.262 16.262 0 0 1 1.566.01c.81.056 1.269-.3 1.595-1.003a38.84 38.84 0 0 1 .925-1.82c.129-.242.257-.485.384-.728.453-.87 1.102-1.533 2.011-1.93.107-.047.205-.112.304-.177.045-.03.09-.059.135-.086a31.28 31.28 0 0 0 .282-.11l2.962-.02c3.102-.024 6.205-.047 9.307-.055h.025c.506 0 1.041 0 1.455.438.35.371.536.792.459 1.273-.084.525-.2 1.045-.317 1.565-.05.23-.102.46-.15.69-.075.352-.258.492-.648.486l-.263-.003c-1.82-.025-3.643-.05-5.464-.005-1.72.042-3.346.506-4.498 1.853-.685.8-1.191 1.774-1.677 2.721-.716 1.395-1.416 2.798-2.116 4.2a361.27 361.27 0 0 1-2.377 4.71c-.506.978-.113 1.937.785 2.293l.497.199c.719.289 1.437.578 2.174.805.402.125.826.178 1.25.23.192.024.383.048.572.078.04.027.08.058.119.089.095.074.19.149.298.172.048.01.117-.074.185-.158.03-.037.061-.074.09-.103.254-.042.509-.08.764-.12.631-.096 1.262-.192 1.88-.341.433-.104.843-.366 1.224-.616.403-.265.789-.556 1.175-.847.162-.122.324-.244.487-.364l.063-.056.135-.12.715-.838.103-.122.017-.016 1.158-1.714.04-.04.04-.038c.697-.128 1.203.106 1.716.63a883.04 883.04 0 0 0 6.403 6.436c.892.89 1.784 1.782 2.675 2.674.17.17.325.353.48.537l.216.251c-.461.64-1.117.908-1.787 1.13-.658.22-1.322.422-1.986.624h-.002l-.796.244-.302.18-1.572.451-1.582.455-.082.048-.001.001-.002.001-.217.13-1.843.53-1.312.377-.302.18c-.335.1-.669.208-1.002.316-.77.249-1.54.498-2.33.648a4.033 4.033 0 0 1-2.992-.577c-.038-.026-.076-.05-.114-.077a29.471 29.471 0 0 0-.36-.31 14.543 14.543 0 0 1-.743-.667c-.464-.457-.924-.919-1.384-1.38-.713-.715-1.426-1.43-2.153-2.13a1.297 1.297 0 0 0-.81-.325c-1.592-.02-3.185-.018-4.79-.016l-1.454.001a2.227 2.227 0 0 0-.017-.092c-.012-.062-.025-.124-.025-.186-.002-6.727 0-13.455 0-20.182 0-.043.005-.085.01-.127l.006-.069.041-.04a3.74 3.74 0 0 1 .041-.039l-.001.004c.234-.002.468-.008.702-.014Zm34.792 20.728a1.593 1.593 0 0 0-.007-.053l-.005-.035a1.22 1.22 0 0 1-.02-.183V25.99c0-.048.006-.097.011-.144l.005-.052.08-.077.003-.003.973-.004c1.166-.005 2.333-.01 3.5-.001.13 0 .26.055.391.11.06.025.121.05.182.07-.206.412.028.551.268.694.104.062.209.124.28.21l-.003.01c-.07.277-.149.58.336.572v17.384c-.24-.02-.385.024-.41.327-.038.459-.23.811-.779.856-.256.02-.52.131-.49.487h-4.315Z"/>
  <path fill="#1FAD96" d="M45.59 28.71a978.93 978.93 0 0 1-.007-1.436h-.002l-.04-.04-.041-.04a9.579 9.579 0 0 1-.131-.006 5.218 5.218 0 0 0-.263-.01l-4.403.002c-4.11 0-8.221.002-12.331-.006-1.417-.003-2.387.674-3.006 1.888a587.102 587.102 0 0 0-3.132 6.247c-.286.576-.557 1.159-.828 1.742v.001c-.123.264-.246.529-.37.792l.067.075a5.734 5.734 0 0 0 3.402.315c1.442-.293 2.664-.99 3.498-2.207.442-.646.796-1.356 1.148-2.063a54.7 54.7 0 0 1 .243-.484c.146-.288.306-.39.628-.376.467.02.935.017 1.402.013.223-.002.446-.004.669-.003.864.004 1.672.187 2.346.772l.163.147c.127.114.254.229.374.35l2.55 2.548a9171.9 9171.9 0 0 0 7.643 7.637c.08.078.18.134.281.19.05.028.098.056.145.086l.002-4.544.002-9.079c-.001-.837-.005-1.673-.01-2.51v-.002ZM4.111 45.558l-.096-.407c0-1.58.001-3.159.003-4.738.004-4.344.007-8.687-.018-13.03-.007-1.15.777-1.731 1.7-1.698.993.036 1.989.032 2.984.029.42-.002.84-.003 1.259-.002.027.027.054.055.081.08l.007.92c.004.614.008 1.228.008 1.843V46.43c-.464 0-.926.003-1.385.005h-.001c-1.2.006-2.384.012-3.568-.023-.468-.014-.825-.369-.976-.855h.002Zm17.607-29.642-.513.613c-.06.027-.119.055-.178.08-.511.4-1.188.216-1.608-.171-.493-.453-.972-.92-1.45-1.387-.4-.39-.8-.781-1.209-1.163-.594-.555-.94-1.182-.78-2.019l.098-.198c.038-.06.075-.122.112-.183.09-.15.18-.3.283-.44.058-.08.18-.161.268-.157l.13.004c.359.01.722.02 1.068.097.15.034.282.143.415.252.059.049.118.097.179.14l.094.104c.071.08.143.16.219.235.661.656 1.324 1.311 1.987 1.966l.663.656c.345.436.514.91.296 1.462-.024.036-.05.07-.075.106l.001.003Zm20.765-4.057c-.296-1.02-1.746-1.158-2.404-.582l-2.97 2.97c-.53.702-.536 1.614-.012 2.107.61.578 1.542.622 2.116.063a150.757 150.757 0 0 0 2.965-2.966c.436-.448.472-1.015.305-1.592Z"/>
</svg>
